X: 248
T: 249. Allein Gott in der H\"oh sei Ehr
N: Derived from chor249.krn
C: Johann Sebastian Bach
%%abc-version 2.0
%%abcx-abcm2ps-target-version 5.9.1 (29 Sep 2008)
%%abc-creator hum2abc beta
%%abcx-conversion-date 2019/03/11 17:28:19
%%abc-edited-by Craig Stuart Sapp
%%humdrum-veritas 3215965518
%%humdrum-veritas-data 103160004
%%
%%barnumbers 0
L: 1/8
M: C
%%staves [1 2 3 4]
V: 1 clef=treble
V: 2 clef=treble
V: 3 clef=treble-8
V: 4 clef=bass
K: G
[V:1] GA [I:setbarnb 1]| 
[V:2] D2 | 
[V:3] Bc | 
[V:4] G,,2 | 
[V:1] B2c2d2c2 | 
[V:2] G2G2F2EF | 
[V:3] d2eG AB cd | 
[V:4] G,F,E,2D,2A,,2 | 
[V:1] B2A2!fermata!B2B2 | 
[V:2] GFE2!fermata!^D2E2 | 
[V:3] eBc2!fermata!F2GA | 
[V:4] E,D,C,2!fermata!B,,2E,F, | 
[V:1] B2AB cBA2 | 
[V:2] =DEF2G3F | 
[V:3] Bcd2e3d/c/ | 
[V:4] G,2F,2E,D, C,A,, | 
[V:1] GEF2!fermata!G2 :|]  
[V:2] G2D2!fermata!D2 :|]  
[V:3] dc/B/A2!fermata!B2 :|]  
[V:4] B,,C,D,2!fermata!G,,2 :|]  
[V:1] G2 [I:setbarnb 5]| 
[V:2] DE | 
[V:3] B2 | 
[V:4] G,2 | 
[V:1] A2B2c2B2 | 
[V:2] F2^G2AA, DE | 
[V:3] A2d2e=f =fe | 
[V:4] D,D CB,A,2G,2 | 
[V:1] A3/B/B2!fermata!A2A2 | 
[V:2] A,A2^G!fermata!E2D2 | 
[V:3] e/d/e =fe/d/!fermata!c2A2 | 
[V:4] =F,C, D,E,!fermata!A,,2^F,2 | 
[V:1] B2c2d2c2 | 
[V:2] D2=G2F^GA2 | 
[V:3] G2GAB2E2 | 
[V:4] G,F,E,2B,,2C,D, | 
[V:1] B2A2!fermata!B2G2 | 
[V:2] =GFE2!fermata!^D2B,^C | 
[V:3] eBc2!fermata!F2G2 | 
[V:4] E,D,C,2!fermata!B,,2E,2 | 
[V:1] A2B2cBA2 | 
[V:2] =DEF2E3D/C/ | 
[V:3] F2BAG3F | 
[V:4] D,2^D,2E,=D, C,A,, | 
[V:1] GEF2!fermata!G2 |]  
[V:2] G2D2!fermata!D2 |]  
[V:3] dc/B/A2!fermata!B2 |]  
[V:4] B,,C,D,2!fermata!G,,2 |]  



